img/location-icon.svg

<svg fill="none" height="24" viewBox="0 0 24 24" width="24" xmlns="http://www.w3.org/2000/svg"><g fill="#219ed3"><path d="m12.0004 0c-4.99515 0-9.05899 4.06384-9.05899 9.0589 0 2.0648 1.4521 5.1244 4.31602 9.0935 2.09071 2.8975 4.21187 5.2581 4.23297 5.2817l.5099.5659.5099-.5659c.0212-.0235 2.1423-2.3841 4.233-5.2817 2.8639-3.9692 4.316-7.0287 4.316-9.0935.0001-4.99506-4.0638-9.0589-9.0588-9.0589zm-.0001 21.9378c-2.54358-2.9302-7.68607-9.5439-7.68607-12.8789-.00007-4.23812 3.44796-7.68614 7.68617-7.68614 4.2382 0 7.6861 3.44802 7.6861 7.68614 0 3.333-5.1426 9.948-7.6862 12.8789z"/><path d="m11.9999 12.47c1.8839 0 3.411-1.5272 3.411-3.41102 0-1.88386-1.5271-3.41103-3.411-3.41103s-3.41103 1.52717-3.41103 3.41103c0 1.88382 1.52713 3.41102 3.41103 3.41102z"/></g></svg>

<svg width="24" height="24" viewBox="0 0 24 24" fill="none" xmlns="http://www.w3.org/2000/svg">
<path d="M12.0004 0C7.00525 0 2.94141 4.06384 2.94141 9.0589C2.94141 11.1237 4.39351 14.1833 7.25743 18.1524C9.34814 21.0499 11.4693 23.4105 11.4904 23.4341L12.0003 24L12.5102 23.4341C12.5314 23.4106 14.6525 21.05 16.7432 18.1524C19.6071 14.1832 21.0592 11.1237 21.0592 9.0589C21.0593 4.06384 16.9954 0 12.0004 0ZM12.0003 21.9378C9.45672 19.0076 4.31423 12.3939 4.31423 9.0589C4.31416 4.82078 7.76219 1.37276 12.0004 1.37276C16.2386 1.37276 19.6865 4.82078 19.6865 9.0589C19.6865 12.3919 14.5439 19.0069 12.0003 21.9378Z" fill="#219ED3"/>
<path d="M11.9999 12.47C13.8838 12.47 15.4109 10.9428 15.4109 9.05898C15.4109 7.17512 13.8838 5.64795 11.9999 5.64795C10.116 5.64795 8.58887 7.17512 8.58887 9.05898C8.58887 10.9428 10.116 12.47 11.9999 12.47Z" fill="#219ED3"/>
</svg>
